X:1
T:Llangan, 87.87 D
T:Llangan, 87.87 D
T:Welsh Melody, 1859
T:Public Domain Courtesy of the Cyber Hymnal™
C:Welsh Melody, 1859
Z:Public Domain
Z:Courtesy of the Cyber Hymnal™
%%score ( 1 2 ) ( 3 4 )
L:1/8
Q:1/4=130
M:3/4
K:G
V:1 treble 
V:2 treble 
V:3 bass 
V:4 bass 
V:1
|: [GB]4 [FA]2 | G4 [DB]2 | [Gc]4 [Ad]2 | [GB]4 [DG]2 | [GB]4 [Gc]2 | d4 [Gd]2 | c2 B2 [FA]2 | %7
 [GB]6 :| [EG]4 [FB]2 | ([EG]3 [^DF]) E2 | [DA]4 [^CA]2 | ([DF]3 [^CE]) D2 | [DB]4 [E^c]2 | %13
 [Dd]4 G2 | [DF]4 [^CE]2 | D6 | [EA]4 [Fc]2 | ([GB]3 [FA]) [EG]2 | B4 [Ge]2 | (d3 B) G2 | d4 B2 | %21
 [Ec]2 [Ge]2 (dc) | [GB]4 [FA]2 | G6 |] %24
V:2
|: x6 | G4 x2 | x6 | x6 | x6 | (G2 F2) x2 | G4 x2 | x6 :| x6 | x4 E2 | x6 | x4 D2 | x6 | x4 (DE) | %14
 x6 | D6 | x6 | x6 | (D2 G2) x2 | F4 G2 | (D2 A2) (GF) | x4 G2 | x6 | G6 |] %24
V:3
|: [G,D]4 [D,D]2 | ([B,D]3 [A,C]) [G,B,]2 | [E,G,]4 [F,D]2 | [G,D]4 [G,,B,]2 | [G,D]4 [E,C]2 | %5
 A,4 [B,,D]2 | [A,,E]2 [D,D]2 [D,D]2 | [G,,D]6 :| [E,B,]4 [^D,B,]2 | B,4 [G,B,]2 | %10
 [F,A,]4 [E,A,]2 | (A,3 G,) [D,F,]2 | G,4 [E,G,]2 | A,2 D2 [G,B,]2 | A,4 (A,G,) | [D,F,]6 | %16
 [C,A,]4 [A,,A,]2 | (G,3 A,) [E,B,]2 | (G,2 B,2) [C,C]2 | (A,3 D) [E,B,]2 | [F,A,]4 [G,D]2 | %21
 [C,C]4 [A,,E]2 | [D,D]4 (DC) | [G,,B,]3 x3 |] %24
V:4
|: x6 | x6 | x6 | x6 | x6 | (D,3 C,) x2 | x6 | x6 :| x6 | (E,3 F,) x2 | x6 | D,4 x2 | G,4 x2 | %13
 F,4 x2 | A,4 A,,2 | x6 | x6 | E,4 x2 | G,4 x2 | D,4 x2 | x6 | x6 | x4 D,2 | x6 |] %24

